X:1
T:Mars et Amour
T:Nicole Regnes
T:Source : Livre I de 25 chansons nouvelles à 4 parties---Paris---N.de Chemin---1549. Editor : André Vierendeels (05/02/18).
T:Mars et Amour
T:©
T:©
T:©
T:©
T:©
C:Nicole Regnes
Z:©
%%score [ 1 2 3 4 ]
L:1/8
Q:1/4=120
M:2/2
K:F
V:1 treble nm="Soprano" snm="S"
V:2 treble nm="Alto" snm="A"
V:3 treble-8 nm="Tenor" snm="T"
V:4 bass nm="Bass" snm="B"
V:1
 G8 | A2 A2 GFGA | BABc d2 B2 | B2 B2 c2 c2 | B4 A4 | z2 F2 F2 F2 | G8 | A4 A2 A2 | B3 A GABG | %9
w: Mars|et A- mour, _ _ _|_ _ _ _ _ font|en sem- ble'al- li-|an- ce,|et ont chan-|gé|de puis- san-|ces _ _ _ _ _|
 A2 G4 F2 | G8 | G8 | A2 A2 GFGA | BABc d2 B2 | B2 B2 c2 c2 | B4 A4 | z2 F2 F2 F2 | G8 | A4 A2 A2 | %19
w: et ar- *|mes,|Mars|a quit- té _ _ _|_ _ _ _ _ sa|tant cru- el- le|lan- ce,|dont se ser-|voit|aux mor- tel-|
 B3 A GABG | A2 G4 F2 | G8 | d4 d2 d2 | c6 B2 | A2 A2 G2 G2 | F3 E/D/ E4 | D4 z2 F2 | G2 G2 B4- | %28
w: les _ _ _ _ _|al- lar- *|mes,|ilz sont tous|deux de|vo- lun- té si|fer- * * *|mes, l'un|ne peult _|
 B4 A4 | d4 d2 d2 | c2 B4 A2 | B4 z4 | z2 B4 A2 | G4 G4- | G4 G4 | G2 G2 F3 G | A2 G3 FFE/D/ | %37
w: _ rien|sans l'au- tr'en-|tre- pren- *|dre,|quand l'arc|d'A- mour|_ le|fier Mars vient _|_ des- * * * *|
 E4 D4 | z4 G4 | G2 G2 AGAB | c4 z4 | z2 c2 c2 c2 | BAGF GABG | ABcB AG G2- |"^#" G2 F2 G4- | %45
w: ten- dre,|du|pre- mier coup _ _ _|_|il rend l'hom-|me'a- * * * * * * *||* mou- reux,|
[M:2/4] G4 |:[M:2/2] G8 | A2 A2 GFGA | BABc d2 B2 | B2 B2 c2 c2 | B4 A4 | z2 F2 F2 F2 | G8 | %53
w: _|et|quand A- mour _ _ _|_ _ _ _ _ vient|pour la pic- que|pren- dre,|tout fait mou-|rir|
 A4 A2 A2 | B3 A GABG | A2 G4 F2 | G8 :| %57
w: en tour- ment|lan- * * * * *|* * gou-|reux.|
V:2
 D8 | F2 F2 E4 | D2 G2 F4 | FEFG A4 | G2 F3 E F2 | D4 z2 D2 | E4 E4 | C2 C2 F2 F2 | G3 F/E/ DCDE | %9
w: Mars|et A- mour|font en- sem-|bl'al- * * * *|li- an- * *|ce, et|ont chan-|gé de puis- san-|ces _ _ _ _ _ _|
 F2 D2 D4 | D8 | D8 | F2 F2 E4 | D2 G2 F4 | FEFG A4 |"^b" G2 F3 E F2 | D4 z2 D2 | E4 E4 | %18
w: _ et ar-|mes,|Mars|a quit- té|sa tant cru-|el- * * * *|le lan- * *|ce, dont|se ser-|
 C2 C2 F2 F2 | G3 F/E/ DCDE | F2 D2 D4 | D8 | G4 G2 G2 | E2 E2 F2 D2 | D2 D2 G,A,B,C | D4 z2 G2 | %26
w: voit aux mor- tel-|les _ _ _ _ _ _|_ al- lar-|mes,|ilz ont tous|deux de vo- lun-|té si fer- * * *|mes, que|
 F2 D2 C3 D | E2 G2 G2 G2 | F2 G2 C4 | F4 F2 F2 |"^b" C2 E2 F4 | D4 z2 F2 | F2 E2 F4 | %33
w: l'un ne peult _|_ rien en- tre-|pren- * *|* dre, rien|en- tre- pren-|dre, quand|l'arc d'A- mour,|
 z2 D2 D2 D2 | E2 E2 D4 | E3 C DE F2- | F2 E3 D D2- |"^#" D2 C2 D4- | D4 z4 | D4 FEFG | A4 G4 | %41
w: le fier Mars|vient des- ten-|||* * dre,|_|du pre- * * *|* mier|
 F2 F2 EDEF | GFED E2 D2 | F2 G2 FEDC | D4 D4- |[M:2/4] D4 |:[M:2/2] D8 | F2 F2 E4 | D2 G2 F4 | %49
w: coup il rend _ _ _|_ _ _ _ _ l'hom-|me'a- mou- * * * *|* reux,|_|et|quand A- mour|vient pour la|
 FEFG A4 | G2 F3 E F2 | D4 z2 D2 | E4 E4 | C2 C2 F2 F2 | G3 F/E/ DCDE | FEDC D4 | D8 :| %57
w: pic- * * * *|que pren- * *|dre, tout|fait mou-|rir en tour- ment|lan- * * * * * *|* * * * gou-|reux.|
V:3
 G4 B2 B2 | AGAB c4 | z4 d4 | d2 d2 c2 A2 | BcdB c4 | B4 z2 F2 | c4 c4 | A2 A2 d4- | d2 d2 B2 B2 | %9
w: Mars et A-|mour, _ _ _ _|font|en- sem- ble'al- li-|an- * * * *|ce, et|ont chan-|gé de puis-|* san- ces et|
 cBAG A4 | G8 | G4 B2 B2 | AGAB c4 | z4 d4 | d2 d2 c2 A2 | BcdB c4 | B4 z2 F2 | c4 c4 | A2 A2 d4- | %19
w: ar- * * * *|mes,|Mars a quit-|té _ _ _ _|sa|tant cru- el- le|lan- * * * *|ce, *|dont se|ser- voit aux|
 d2 d2 B2 B2 | cBAG A4 | G8 | B4 B2 B2 | c3 B A2 G2 | F2 A2 B3 A/G/ | A4 G4 | z2 F2 A2 A2 | %27
w: _ mor- tel- les|al- * * * lar-|mes,|ilz sont tous|deux de vo- lun-|té si fer- * *|* mes,|que l'un ne|
 c4 B2 B2 | d3 e f2 f2 | d2 d2 d2 d2 |"^b" edcB c4 | B4 z4 | z2 B2 c2 c2 | B4 z2 B2 | G3 A B2 B2 | %35
w: peult rien sans|l'au- tr'en- tre- pren-|dre, sans l'au- tr'en-|tre- * * * pren-|dre,|quand l'arc d'A-|mour le|fier Mars, vient des-|
 c4 FGAB | c3 B/A/ G2 B2 | A4 z2 A2 | A2 A2 GFGA | B4 z2 c2 | c2 c2 BABc | d2 A2 c2 c2 | %42
w: ten- * * * *||dre, du|pre- mier coup _ _ _|_ du|pre- mier coup _ _ _|_ il rend l'hom-|
 dcBA BcdB | cded cBAG | A2 A2 G4- |[M:2/4] G4 |:[M:2/2] G4 B2 B2 | AGAB c4 | z4 d4 | d2 d2 c2 A2 | %50
w: me'a- * * * * * * *||* mou- reux,|_|et quand A-|mour _ _ _ _|vient|pour la pic- que|
 BcdB c4 | B4 z2 F2 | c4 c4 | A2 A2 d4- | d2 d2 B2 B2 | cBAG A4 | G8 :| %57
w: pren- * * * *|dre, tout|fait mou-|rir, mou- rir|_ en tour- ment|lan- * * * gou-|reux.|
V:4
 z4 G,4 | F,2 F,2 C,D,E,F, | G,F,G,A, B,2 B,2 | B,2 B,2 A,2 F,2 |"^#" G,2 B,2 F,4 | %5
w: Mars|et A- mour _ _ _|_ _ _ _ _ font|en- sem- ble'al- li-|an- * *|
 B,,2 B,,2 D,2 D,2 | C,4 z2 C,2 | F,2 F,2 D,2 D,2 | G,6 G,2 | F,2 G,2 D,4 | G,8 | z4 G,4 | %12
w: ce, et ont chan-|gé, et|ont chan- gé de|puis- san-|ces et ar-|mes,|Mars|
 F,2 F,2 C,D,E,F, | G,F,G,A, B,2 B,2 | B,2 B,2 A,2 F,2 | G,2 B,2 F,4 | B,,2 B,,2 D,2 D,2 | %17
w: a quit- té _ _ _|_ _ _ _ _ sa|tant cru- el- le|lan- * *|ce, dont se ser-|
 C,4 z2 C,2 | F,2 F,2 D,2 D,2 | G,6 G,2 | F,2 G,2 D,4 | G,8 | G,4 G,2 G,2 | A,3 G, F,2 G,2 | %24
w: voit aux|mor- tel- les al-|lar- mes|al- * lar-|mes,|ilz sont tous|deux de vo- lun-|
 D,2 F,2 _E,4 | D,4 z2 C,2 | D,2 D,2 F,4 | E,2 C,2 G,3 A, | B,2 G,2 F,4 | z2 B,2 B,2 B,2 | %30
w: té si fer-|mes, que|l'un ne peult|rien sans l'au- tr'en-|tre- pren- dre,|sans l'au- tr'en-|
 A,2 G,2 F,4 | z2 B,4 A,2 | G,4 F,4 | G,4 G,2 G,2 | E,2 C,2 G,4 | C,3 E, D,4 | C,4 z4 | z4 D,4 | %38
w: tre- pren- dre,|quand l'arc|d'A- mour,|le fier Mars|vient des- ten-||dre,|du|
 D,2 D,2 E,D,E,F, | G,4 z2 F,2 | F,2 F,2 G,F,G,A, | B,2 F,2 A,2 A,2 | G,4 G,4 | F,2 C,2 F,2 G,2 | %44
w: pre- mier coup, _ _ _|_ du|pre- mier coup, _ _ _|_ il rend l'hom-|me'a- mou-|reux, rend l'hom- me'a-|
 D,4 G,4- |[M:2/4] G,4 |:[M:2/2] z4 G,4 | F,2 F,2 C,D,E,F, | G,F,G,A, B,2 B,2 | B,2 B,2 A,2 F,2 | %50
w: mou- reux,|_|et|quand A- mour _ _ _|_ _ _ _ _ vient|pour la pic- que|
 G,2 B,2 F,4 |"^#" B,,2 B,,2 D,2 D,2 | C,4 z2 C,2 | F,2 F,2 D,2 D,2 | G,6 G,2 | F,2 G,2 D,4 | %56
w: pren- * *|dre, tout fait mou-|rir, tout|fait mou- rir en|tour- ment|lan- * gou-|
 G,8 :| %57
w: reux.|

